;FLAVOR:UltiGCode
;TIME:2056
;MATERIAL:699
;MATERIAL2:0
;NOZZLE_DIAMETER:0.400000
;NOZZLE_DIAMETER2:0.400000

;Layer count: 348
;LAYER:0
M107
G0 F9000 X96.174 Y44.155 Z0.300
;TYPE:SKIRT
G1 F1200 X96.422 Y43.756 E0.05638
G1 X96.692 Y43.394 E0.11057
G1 X97.230 Y42.832 E0.20393
G1 X97.868 Y42.362 E0.29902
G1 X98.297 Y42.121 E0.35807
G1 X99.036 Y41.824 E0.45364
G1 X99.810 Y41.659 E0.54861
G1 X100.301 Y41.616 E0.60775
G1 X101.058 Y41.649 E0.69868
G1 X101.557 Y41.735 E0.75944
G1 X102.267 Y41.954 E0.84860
G1 X102.727 Y42.162 E0.90918
G1 X103.360 Y42.554 E0.99853
G1 X103.725 Y42.851 E1.05500
G1 X104.050 Y43.165 E1.10923
G1 X104.513 Y43.740 E1.19781
G1 X104.771 Y44.159 E1.25686
G1 X105.097 Y44.882 E1.35203
G1 X105.298 Y45.651 E1.44741
G1 X105.355 Y46.105 E1.50232
G1 X105.373 Y46.535 E1.55397
G1 X105.352 Y46.988 E1.60839
G1 X105.225 Y47.719 E1.69742
G1 X105.076 Y48.201 E1.75796
G1 X104.769 Y48.878 E1.84716
G1 X104.521 Y49.277 E1.90354
G1 X104.251 Y49.639 E1.95773
G1 X103.713 Y50.201 E2.05109
G1 X103.075 Y50.671 E2.14618
G1 X102.646 Y50.912 E2.20523
G1 X101.907 Y51.209 E2.30080
G1 X101.133 Y51.374 E2.39577
G1 X100.642 Y51.417 E2.45492
G1 X99.885 Y51.384 E2.54584
G1 X99.386 Y51.298 E2.60660
G1 X98.676 Y51.079 E2.69577
G1 X98.216 Y50.871 E2.75635
G1 X97.583 Y50.479 E2.84569
G1 X97.218 Y50.182 E2.90216
G1 X96.893 Y49.868 E2.95639
G1 X96.430 Y49.293 E3.04498
G1 X96.172 Y48.874 E3.10403
G1 X95.846 Y48.151 E3.19920
G1 X95.645 Y47.382 E3.29458
G1 X95.588 Y46.931 E3.34913
G1 X95.569 Y46.499 E3.40102
G1 X95.590 Y46.080 E3.45136
G1 X95.643 Y45.673 E3.50061
G1 X95.732 Y45.261 E3.55119
G1 X95.869 Y44.827 E3.60581
G1 X96.174 Y44.155 E3.69436
G0 F9000 X96.527 Y44.344
G1 F1200 X96.752 Y43.981 E3.74561
G1 X96.998 Y43.653 E3.79481
G1 X97.495 Y43.134 E3.88104
G1 X98.085 Y42.699 E3.96901
G1 X98.470 Y42.483 E4.02198
G1 X99.154 Y42.208 E4.11045
G1 X99.870 Y42.055 E4.19831
G1 X100.309 Y42.016 E4.25119
G1 X101.015 Y42.047 E4.33600
G1 X101.464 Y42.125 E4.39068
G1 X102.125 Y42.328 E4.47366
G1 X102.538 Y42.516 E4.52811
G1 X103.128 Y42.881 E4.61136
G1 X103.459 Y43.150 E4.66255
G1 X103.754 Y43.436 E4.71185
G1 X104.186 Y43.972 E4.79446
G1 X104.417 Y44.347 E4.84732
G1 X104.719 Y45.016 E4.93540
G1 X104.905 Y45.727 E5.02359
G1 X104.956 Y46.138 E5.07329
G1 X104.972 Y46.534 E5.12084
G1 X104.953 Y46.945 E5.17022
G1 X104.835 Y47.625 E5.25304
G1 X104.702 Y48.058 E5.30739
G1 X104.416 Y48.689 E5.39053
G1 X104.191 Y49.052 E5.44178
G1 X103.945 Y49.380 E5.49098
G1 X103.448 Y49.899 E5.57721
G1 X102.858 Y50.334 E5.66517
G1 X102.473 Y50.550 E5.71814
G1 X101.789 Y50.825 E5.80661
G1 X101.073 Y50.978 E5.89447
G1 X100.634 Y51.017 E5.94736
G1 X99.928 Y50.986 E6.03216
G1 X99.479 Y50.908 E6.08685
G1 X98.818 Y50.705 E6.16982
G1 X98.405 Y50.517 E6.22428
G1 X97.815 Y50.152 E6.30753
G1 X97.484 Y49.883 E6.35871
G1 X97.189 Y49.597 E6.40802
G1 X96.757 Y49.061 E6.49063
G1 X96.526 Y48.686 E6.54348
G1 X96.224 Y48.017 E6.63156
G1 X96.038 Y47.306 E6.71975
G1 X95.987 Y46.898 E6.76909
G1 X95.969 Y46.500 E6.81690
G1 X95.988 Y46.115 E6.86316
G1 X96.037 Y45.741 E6.90842
G1 X96.119 Y45.364 E6.95472
G1 X96.243 Y44.971 E7.00417
G1 X96.527 Y44.344 E7.08677
G0 F9000 X97.083 Y44.207
G1 F1200 X97.304 Y43.912 E7.13100
G1 X97.760 Y43.435 E7.21019
G1 X98.303 Y43.035 E7.29112
G1 X98.643 Y42.844 E7.33792
G1 X99.271 Y42.592 E7.41912
G1 X99.929 Y42.451 E7.49987
G1 X100.318 Y42.417 E7.54673
G1 X100.972 Y42.446 E7.62529
G1 X101.370 Y42.514 E7.67374
G1 X101.982 Y42.703 E7.75060
G1 X102.349 Y42.870 E7.79898
G1 X102.896 Y43.207 E7.87608
G1 X103.193 Y43.449 E7.92206
G1 X103.458 Y43.706 E7.96635
G1 X103.858 Y44.203 E8.04291
G1 X104.063 Y44.535 E8.08973
G1 X104.340 Y45.150 E8.17067
G1 X104.511 Y45.803 E8.25168
G1 X104.557 Y46.171 E8.29618
G1 X104.572 Y46.533 E8.33966
G1 X104.555 Y46.901 E8.38386
G1 X104.445 Y47.532 E8.46073
G1 X104.327 Y47.916 E8.50893
G1 X104.062 Y48.500 E8.58589
G1 X103.860 Y48.826 E8.63191
G1 X103.639 Y49.121 E8.67614
G1 X103.183 Y49.598 E8.75533
G1 X102.640 Y49.998 E8.83626
G1 X102.300 Y50.189 E8.88306
G1 X101.672 Y50.441 E8.96426
G1 X101.014 Y50.582 E9.04501
G1 X100.625 Y50.616 E9.09187
G1 X99.971 Y50.587 E9.17043
G1 X99.573 Y50.519 E9.21888
G1 X98.961 Y50.330 E9.29574
G1 X98.594 Y50.163 E9.34413
G1 X98.047 Y49.826 E9.42122
G1 X97.750 Y49.584 E9.46720
G1 X97.485 Y49.327 E9.51150
G1 X97.085 Y48.830 E9.58805
G1 X96.880 Y48.498 E9.63488
G1 X96.603 Y47.883 E9.71582
G1 X96.432 Y47.230 E9.79682
G1 X96.386 Y46.864 E9.84108
G1 X96.370 Y46.501 E9.88469
G1 X96.387 Y46.151 E9.92674
G1 X96.432 Y45.810 E9.96801
G1 X96.506 Y45.466 E10.01023
G1 X96.617 Y45.114 E10.05452
G1 X96.881 Y44.533 E10.13110
G1 X97.083 Y44.207 E10.17713
G0 F9000 X97.414 Y44.433
G1 F1200 X97.609 Y44.171 E10.21632
G1 X98.025 Y43.737 E10.28846
G1 X98.520 Y43.372 E10.36226
G1 X98.816 Y43.206 E10.40299
G1 X99.388 Y42.976 E10.47697
G1 X99.989 Y42.848 E10.55070
G1 X100.327 Y42.818 E10.59142
G1 X100.929 Y42.844 E10.66373
G1 X101.277 Y42.904 E10.70611
G1 X101.840 Y43.078 E10.77682
G1 X102.161 Y43.223 E10.81909
G1 X102.663 Y43.534 E10.88995
G1 X102.928 Y43.749 E10.93090
G1 X103.162 Y43.976 E10.97002
G1 X103.531 Y44.434 E11.04060
G1 X103.709 Y44.723 E11.08133
G1 X103.962 Y45.283 E11.15507
G1 X104.117 Y45.879 E11.22897
G1 X104.158 Y46.204 E11.26828
G1 X104.172 Y46.532 E11.30768
G1 X104.157 Y46.857 E11.34672
G1 X104.056 Y47.438 E11.41748
G1 X103.952 Y47.774 E11.45969
G1 X103.708 Y48.311 E11.53047
G1 X103.529 Y48.600 E11.57126
G1 X103.334 Y48.862 E11.61046
G1 X102.918 Y49.296 E11.68260
G1 X102.423 Y49.661 E11.75640
G1 X102.127 Y49.827 E11.79712
G1 X101.555 Y50.057 E11.87111
G1 X100.954 Y50.185 E11.94484
G1 X100.616 Y50.215 E11.98556
G1 X100.014 Y50.189 E12.05787
G1 X99.666 Y50.129 E12.10025
G1 X99.103 Y49.955 E12.17096
G1 X98.782 Y49.810 E12.21323
G1 X98.280 Y49.499 E12.28409
G1 X98.015 Y49.284 E12.32504
G1 X97.781 Y49.057 E12.36416
G1 X97.412 Y48.599 E12.43474
G1 X97.234 Y48.310 E12.47547
G1 X96.981 Y47.750 E12.54921
G1 X96.826 Y47.154 E12.62311
G1 X96.785 Y46.830 E12.66230
G1 X96.770 Y46.502 E12.70170
G1 X96.786 Y46.187 E12.73955
G1 X96.826 Y45.878 E12.77694
G1 X96.893 Y45.569 E12.81488
G1 X96.992 Y45.257 E12.85416
G1 X97.235 Y44.722 E12.92467
G1 X97.414 Y44.433 E12.96546
G0 F9000 X97.745 Y44.658
G1 F1200 X97.915 Y44.430 E12.99959
G1 X98.290 Y44.038 E13.06469
G1 X98.737 Y43.709 E13.13129
G1 X98.989 Y43.567 E13.16600
G1 X99.505 Y43.360 E13.23272
G1 X100.048 Y43.244 E13.29935
G1 X100.336 Y43.219 E13.33404
G1 X100.886 Y43.243 E13.40010
G1 X101.184 Y43.294 E13.43638
G1 X101.698 Y43.453 E13.50095
G1 X101.972 Y43.577 E13.53704
G1 X102.431 Y43.861 E13.60181
G1 X102.662 Y44.048 E13.63747
G1 X102.866 Y44.246 E13.67159
G1 X103.204 Y44.665 E13.73619
G1 X103.355 Y44.911 E13.77083
G1 X103.583 Y45.417 E13.83742
G1 X103.724 Y45.955 E13.90417
G1 X103.759 Y46.237 E13.93826
G1 X103.771 Y46.531 E13.97357
G1 X103.758 Y46.814 E14.00757
G1 X103.666 Y47.345 E14.07224
G1 X103.577 Y47.632 E14.10830
G1 X103.355 Y48.122 E14.17285
G1 X103.198 Y48.375 E14.20858
G1 X103.028 Y48.603 E14.24271
G1 X102.653 Y48.995 E14.30781
G1 X102.206 Y49.324 E14.37441
G1 X101.954 Y49.466 E14.40912
G1 X101.438 Y49.673 E14.47584
G1 X100.895 Y49.789 E14.54247
G1 X100.607 Y49.814 E14.57716
G1 X100.057 Y49.790 E14.64322
G1 X99.759 Y49.739 E14.67950
G1 X99.245 Y49.580 E14.74406
G1 X98.971 Y49.456 E14.78015
G1 X98.512 Y49.172 E14.84493
G1 X98.281 Y48.985 E14.88059
G1 X98.077 Y48.787 E14.91470
G1 X97.739 Y48.368 E14.97930
G1 X97.588 Y48.122 E15.01394
G1 X97.360 Y47.616 E15.08054
G1 X97.219 Y47.078 E15.14728
G1 X97.184 Y46.796 E15.18138
G1 X97.171 Y46.503 E15.21658
G1 X97.185 Y46.223 E15.25022
G1 X97.221 Y45.947 E15.28362
G1 X97.280 Y45.672 E15.31737
G1 X97.366 Y45.400 E15.35160
G1 X97.588 Y44.911 E15.41605
G1 X97.745 Y44.658 E15.45178
G0 F9000 X98.074 Y44.886
;TYPE:WALL-OUTER
G1 F1200 X98.220 Y44.691 E15.48101
G1 X98.556 Y44.340 E15.53932
G1 X98.958 Y44.043 E15.59929
G1 X99.157 Y43.932 E15.62664
G1 X99.623 Y43.744 E15.68694
G1 X100.114 Y43.639 E15.74719
G1 X100.341 Y43.619 E15.77453
G1 X100.846 Y43.642 E15.83520
G1 X101.090 Y43.684 E15.86491
G1 X101.555 Y43.827 E15.92329
G1 X101.785 Y43.932 E15.95363
G1 X102.199 Y44.187 E16.01197
G1 X102.393 Y44.345 E16.04200
G1 X102.571 Y44.518 E16.07179
G1 X102.877 Y44.897 E16.13024
G1 X103.002 Y45.100 E16.15885
G1 X103.203 Y45.545 E16.21744
G1 X103.332 Y46.039 E16.27871
G1 X103.371 Y46.529 E16.33769
G1 X103.360 Y46.770 E16.36665
G1 X103.276 Y47.251 E16.42524
G1 X103.203 Y47.489 E16.45511
G1 X103.000 Y47.935 E16.51391
G1 X102.869 Y48.147 E16.54382
G1 X102.723 Y48.342 E16.57305
G1 X102.387 Y48.693 E16.63136
G1 X101.985 Y48.990 E16.69134
G1 X101.786 Y49.101 E16.71868
G1 X101.320 Y49.289 E16.77898
G1 X100.829 Y49.394 E16.83923
G1 X100.602 Y49.414 E16.86658
G1 X100.097 Y49.391 E16.92724
G1 X99.853 Y49.349 E16.95695
G1 X99.388 Y49.206 E17.01533
G1 X99.158 Y49.101 E17.04567
G1 X98.744 Y48.846 E17.10402
G1 X98.550 Y48.688 E17.13404
G1 X98.372 Y48.515 E17.16383
G1 X98.066 Y48.136 E17.22228
G1 X97.941 Y47.933 E17.25089
G1 X97.740 Y47.488 E17.30948
G1 X97.611 Y46.994 E17.37075
G1 X97.571 Y46.504 E17.42975
G1 X97.584 Y46.251 E17.46015
G1 X97.616 Y46.007 E17.48968
G1 X97.665 Y45.783 E17.51719
G1 X97.741 Y45.542 E17.54752
G1 X97.943 Y45.098 E17.60605
G1 X98.074 Y44.886 E17.63596
G0 F9000 X98.327 Y45.046
G0 X99.131 Y45.474
G0 X99.377 Y45.644
G1 F1200 X99.265 Y45.805 E17.65949
G1 X99.124 Y46.133 E17.70234
G1 X99.084 Y46.326 E17.72599
G1 X99.072 Y46.531 E17.75063
G1 X99.087 Y46.728 E17.77434
G1 X99.190 Y47.081 E17.81846
G1 X99.283 Y47.256 E17.84225
G1 X99.399 Y47.416 E17.86596
G1 X99.674 Y47.669 E17.91080
G1 X100.008 Y47.837 E17.95567
G1 X100.377 Y47.914 E18.00090
G1 X100.587 Y47.913 E18.02610
G1 X100.947 Y47.834 E18.07033
G1 X101.128 Y47.753 E18.09412
G1 X101.290 Y47.653 E18.11697
G1 X101.438 Y47.530 E18.14006
G1 X101.566 Y47.389 E18.16291
G1 X101.678 Y47.228 E18.18645
G1 X101.819 Y46.900 E18.22929
G1 X101.859 Y46.707 E18.25294
G1 X101.871 Y46.503 E18.27747
G1 X101.856 Y46.305 E18.30130
G1 X101.753 Y45.952 E18.34542
G1 X101.660 Y45.777 E18.36920
G1 X101.544 Y45.617 E18.39292
G1 X101.269 Y45.364 E18.43776
G1 X100.935 Y45.196 E18.48262
G1 X100.566 Y45.119 E18.52786
G1 X100.356 Y45.120 E18.55306
G1 X99.996 Y45.199 E18.59729
G1 X99.815 Y45.280 E18.62108
G1 X99.653 Y45.380 E18.64393
G1 X99.505 Y45.503 E18.66702
G1 X99.377 Y45.644 E18.68987
G0 F9000 X99.178 Y45.720
;TYPE:SKIN
G1 F1200 X98.274 Y44.817 E18.84320
G0 F9000 X98.545 Y44.522
G1 F1200 X99.430 Y45.407 E18.99339
G0 F9000 X99.760 Y45.172
G1 F1200 X98.856 Y44.267 E19.14689
G0 F9000 X99.200 Y44.045
G1 F1200 X100.187 Y45.033 E19.31447
G0 F9000 X100.755 Y45.035
G1 F1200 X99.600 Y43.880 E19.51048
G0 F9000 X99.667 Y44.049
G0 X98.207 Y45.241
G0 X98.047 Y45.155
G1 F1200 X99.004 Y46.112 E19.67289
G0 F9000 X98.959 Y46.633
G1 F1200 X97.870 Y45.544 E19.85770
G0 F9000 X97.741 Y45.981
G1 F1200 X100.994 Y49.234 E20.40975
G0 F9000 X101.438 Y49.112
G1 F1200 X100.358 Y48.033 E20.59295
G0 F9000 X100.866 Y47.975
G1 F1200 X101.829 Y48.938 E20.75638
G0 F9000 X102.164 Y48.706
G1 F1200 X101.266 Y47.808 E20.90877
G0 F9000 X101.577 Y47.554
G1 F1200 X102.463 Y48.440 E21.05913
G0 F9000 X102.725 Y48.137
G1 F1200 X101.809 Y47.221 E21.21458
G0 F9000 X101.960 Y46.806
G1 F1200 X102.937 Y47.782 E21.38030
G0 F9000 X103.108 Y47.388
G1 F1200 X101.962 Y46.242 E21.57478
G0 F9000 X103.119 Y45.702
G1 F1200 X101.287 Y43.870 E21.88568
G0 F9000 X100.603 Y43.752
G1 F1200 X103.239 Y46.387 E22.33294
G0 F9000 X103.210 Y46.925
G1 F1200 X100.060 Y43.774 E22.86760
G0 F9000 X100.096 Y43.949
G0 X97.872 Y46.497
G0 X97.690 Y46.495
G1 F1200 X100.483 Y49.288 E23.34159
G0 F9000 X99.852 Y49.223
G1 F1200 X97.774 Y47.145 E23.69424
G0 F9000 X98.310 Y48.247
G1 F1200 X98.798 Y48.735 E23.77705
G0 F9000 X99.008 Y48.417
;LAYER:1
M106 S127
G0 X98.743 Y48.845 Z0.400
;TYPE:WALL-OUTER
G1 F840 X98.548 Y48.687 E23.78709
G1 X98.217 Y48.338 E23.80633
G1 X97.939 Y47.927 E23.82618
G1 X97.730 Y47.459 E23.84668
G1 X97.663 Y47.235 E23.85603
G1 X97.583 Y46.762 E23.87522
G1 X97.571 Y46.501 E23.88567
G1 X97.614 Y46.022 E23.90491
G1 X97.669 Y45.772 E23.91515
G1 X97.828 Y45.326 E23.93409
G1 X98.068 Y44.896 E23.95379
G1 X98.382 Y44.506 E23.97381
G1 X98.754 Y44.180 E23.99360
G1 X98.958 Y44.044 E24.00341
G1 X99.393 Y43.825 E24.02289
G1 X99.865 Y43.681 E24.04263
G1 X100.341 Y43.619 E24.06183
G1 X100.838 Y43.641 E24.08173
G1 X101.320 Y43.744 E24.10144
G1 X101.780 Y43.929 E24.12127
G1 X102.200 Y44.188 E24.14101
G1 X102.395 Y44.346 E24.15105
G1 X102.726 Y44.695 E24.17029
G1 X103.004 Y45.106 E24.19014
G1 X103.111 Y45.317 E24.19960
G1 X103.277 Y45.789 E24.21962
G1 X103.360 Y46.273 E24.23926
G1 X103.371 Y46.534 E24.24971
G1 X103.330 Y47.001 E24.26846
G1 X103.202 Y47.490 E24.28868
G1 X103.109 Y47.718 E24.29853
G1 X102.873 Y48.139 E24.31783
G1 X102.561 Y48.527 E24.33775
G1 X102.189 Y48.853 E24.35753
G1 X101.985 Y48.989 E24.36734
G1 X101.550 Y49.208 E24.38682
G1 X101.078 Y49.352 E24.40656
G1 X100.602 Y49.414 E24.42576
G1 X100.105 Y49.392 E24.44566
G1 X99.623 Y49.289 E24.46538
G1 X99.163 Y49.104 E24.48521
G1 X98.743 Y48.845 E24.50495
G0 F9000 X98.920 Y48.602
G0 X99.473 Y47.892
G0 X99.664 Y47.661
G1 F840 X99.849 Y47.770 E24.51354
G1 X100.179 Y47.886 E24.52753
G1 X100.377 Y47.914 E24.53553
G1 X100.592 Y47.912 E24.54413
G1 X100.935 Y47.838 E24.55816
G1 X101.138 Y47.749 E24.56703
G1 X101.425 Y47.543 E24.58116
G1 X101.573 Y47.379 E24.59000
G1 X101.760 Y47.063 E24.60468
G1 X101.823 Y46.877 E24.61254
G1 X101.859 Y46.707 E24.61949
G1 X101.872 Y46.516 E24.62715
G1 X101.855 Y46.301 E24.63577
G1 X101.751 Y45.947 E24.65053
G1 X101.654 Y45.766 E24.65875
G1 X101.419 Y45.487 E24.67334
G1 X101.279 Y45.372 E24.68058
G1 X101.094 Y45.263 E24.68917
G1 X100.764 Y45.147 E24.70316
G1 X100.566 Y45.119 E24.71116
G1 X100.351 Y45.121 E24.71976
G1 X100.008 Y45.195 E24.73380
G1 X99.805 Y45.284 E24.74267
G1 X99.518 Y45.490 E24.75680
G1 X99.370 Y45.654 E24.76563
G1 X99.183 Y45.970 E24.78032
G1 X99.120 Y46.156 E24.78818
G1 X99.084 Y46.326 E24.79513
G1 X99.071 Y46.518 E24.80282
G1 X99.088 Y46.732 E24.81141
G1 X99.192 Y47.086 E24.82617
G1 X99.289 Y47.267 E24.83438
G1 X99.524 Y47.546 E24.84897
G1 X99.664 Y47.661 E24.85622
G0 F9000 X99.599 Y47.761
;TYPE:SKIN
G1 F840 X98.702 Y48.658 E24.90696
G0 F9000 X98.418 Y48.376
G1 F840 X99.312 Y47.482 E24.95754
G0 F9000 X99.086 Y47.143
G1 F840 X98.172 Y48.057 E25.00924
G0 F9000 X97.967 Y47.696
G1 F840 X98.963 Y46.700 E25.06558
G0 F9000 X99.018 Y46.080
G1 F840 X97.805 Y47.292 E25.13417
G0 F9000 X97.713 Y46.818
G1 F840 X100.774 Y43.757 E25.30733
G0 F9000 X101.247 Y43.851
G1 F840 X100.032 Y45.066 E25.37606
G0 F9000 X100.653 Y45.010
G1 F840 X101.655 Y44.008 E25.43274
G0 F9000 X102.014 Y44.215
G1 F840 X101.092 Y45.136 E25.48487
G0 F9000 X101.442 Y45.352
G1 F840 X102.336 Y44.459 E25.53541
G0 F9000 X102.611 Y44.749
G1 F840 X101.711 Y45.649 E25.58632
G0 F9000 X101.899 Y46.027
G1 F840 X102.843 Y45.083 E25.63972
G0 F9000 X103.032 Y45.459
G1 F840 X101.991 Y46.500 E25.69861
G0 F9000 X101.758 Y47.299
G1 F840 X103.171 Y45.886 E25.77854
G0 F9000 X103.243 Y46.380
G1 F840 X100.341 Y49.282 E25.94271
G0 F9000 X99.844 Y49.213
G1 F840 X101.225 Y47.832 E26.02083
G0 F9000 X100.459 Y48.033
G1 F840 X99.415 Y49.076 E26.07986
G0 F9000 X99.039 Y48.887
G1 F840 X99.982 Y47.943 E26.13323
G0 F9000 X99.921 Y48.113
G0 X99.243 Y47.831
G0 X97.892 Y46.268
G0 X97.712 Y46.253
G1 F840 X100.210 Y43.756 E26.27451
G0 F9000 X100.224 Y43.931
G0 X101.700 Y45.202
G0 X103.034 Y46.951
G0 X103.210 Y46.979
G1 F840 X100.940 Y49.248 E26.40289
G0 F9000 X101.816 Y48.938
G1 F840 X102.888 Y47.866 E26.46353
G0 F9000 X102.733 Y47.778
G0 X101.700 Y45.202
G0 X100.307 Y44.723
G0 X99.529 Y44.097
G0 X99.477 Y43.923
G1 F840 X97.888 Y45.512 E26.55342
G0 F9000 X98.237 Y45.642
;LAYER:2
M106 S255
G0 X97.738 Y45.551 Z0.500
;TYPE:WALL-OUTER
G1 F840 X97.939 Y45.104 E26.57302
G1 X98.083 Y44.875 E26.58384
G1 X98.377 Y44.511 E26.60256
G1 X98.747 Y44.185 E26.62229
G1 X99.171 Y43.924 E26.64220
G1 X99.384 Y43.828 E26.65155
G1 X99.862 Y43.682 E26.67154
G1 X100.345 Y43.620 E26.69102
G1 X100.838 Y43.641 E26.71076
G1 X101.320 Y43.744 E26.73047
G1 X101.786 Y43.932 E26.75057
